T: Jenny Will You Marry Me?
M: 4/4
L: 1/8
K: Gmaj
|: G>E |(3DDD D>E G>AB>A | G>E (3EEE c>EG>E |\
(3DDD D>E G>AB>c | d>ed>B A2 :|
G2 |d2 d>c B>c d2 | e2 e>d c>d e2 |\
(3ddd d>c B>cd>B | G>A (3BAG (3AAA G2 |
d2 d>c B>c d2 | (3eee e>d e>f g2 |\
d2 g>d (3efg d>B | G>A (3BAG A2 |]
